!!!OTL: STORCH STORCH HEINI
!!!ARE: Europa, Mitteleuropa, Deutschland; France, Elsass
!!!SCT: E1856
!!!YEM: Copyright 1995, estate of Helmut Schaffrath.
**kern
*ICvox
*Ivox
*M2/4
*k[b-]
*F:
=1
{8cc
8dd
8cc
8dd
=2
4cc
8a}
{8a
=3
8cc
8dd
8cc
8dd
=4
4cc
8a}
{8a
=5
8cc
8dd
8cc
8dd
=6
2cc}
=7
{8cc
8dd
8cc
8dd
=8
8cc
8b-
4a}
==
!!!AGN: Kinder - Lied, Tier - Lied
!!!ONB: ESAC (Essen Associative Code) Database: ERK3
!!!AMT: simple duple
!!!AIN: vox
!!!EED: Helmut Schaffrath
!!!EEV: 1.0
*-
